app/ui/static/images/icons/solid/presentation-chart-line.svg

<svg width="20" height="20" viewBox="0 0 20 20" fill="none" xmlns="http://www.w3.org/2000/svg">
<path fill-rule="evenodd" clip-rule="evenodd" d="M1 2.75C1 2.33579 1.33579 2 1.75 2H18.25C18.6642 2 19 2.33579 19 2.75C19 3.16421 18.6642 3.5 18.25 3.5H18V12.25C18 13.7688 16.7688 15 15.25 15H14.1775L14.9759 18.0606C15.0805 18.4614 14.8403 18.8711 14.4395 18.9757C14.0387 19.0802 13.629 18.8401 13.5245 18.4393L13.4099 17.9999H6.5905L6.4759 18.4393C6.37134 18.8401 5.96167 19.0802 5.56087 18.9757C5.16007 18.8711 4.91991 18.4614 5.02447 18.0606L5.82289 15H4.75C3.23122 15 2 13.7688 2 12.25V3.5H1.75C1.33579 3.5 1 3.16421 1 2.75ZM7.37309 15L6.9818 16.4999H13.0186L12.6273 15H7.37309ZM14.8625 6.0688C15.1031 6.40599 15.0248 6.87436 14.6876 7.11493C13.4276 8.0139 12.2896 9.05711 11.2905 10.2134C11.1542 10.3711 10.9585 10.465 10.7503 10.4726C10.542 10.4801 10.34 10.4007 10.1927 10.2534L8.5 8.56073L6.28033 10.7804C5.98744 11.0733 5.51256 11.0733 5.21967 10.7804C4.92678 10.4875 4.92678 10.0126 5.21967 9.71973L7.96967 6.96973C8.26256 6.67684 8.73744 6.67684 9.03033 6.96973L10.6938 8.63325C11.6347 7.62514 12.679 6.70534 13.8164 5.89386C14.1536 5.65328 14.6219 5.73161 14.8625 6.0688Z" fill="#0F172A"/>
</svg>

<svg xmlns="http://www.w3.org/2000/svg" viewBox="0 0 20 20" fill="currentColor" aria-hidden="true">
  <path fill-rule="evenodd" d="M1 2.75A.75.75 0 011.75 2h16.5a.75.75 0 010 1.5H18v8.75A2.75 2.75 0 0115.25 15h-1.072l.798 3.06a.75.75 0 01-1.452.38L13.41 18H6.59l-.114.44a.75.75 0 01-1.452-.38L5.823 15H4.75A2.75 2.75 0 012 12.25V3.5h-.25A.75.75 0 011 2.75zM7.373 15l-.391 1.5h6.037l-.392-1.5H7.373zm7.49-8.931a.75.75 0 01-.175 1.046 19.326 19.326 0 00-3.398 3.098.75.75 0 01-1.097.04L8.5 8.561l-2.22 2.22A.75.75 0 115.22 9.72l2.75-2.75a.75.75 0 011.06 0l1.664 1.663a20.786 20.786 0 013.122-2.74.75.75 0 011.046.176z" clip-rule="evenodd"/>
</svg>
